src/epub/images/titlepage.svg

<?xml version="1.0" encoding="utf-8"?>
<svg xmlns="http://www.w3.org/2000/svg" xmlns:svg="http://www.w3.org/2000/svg" version="1.1" viewBox="0 0 1400 340">
	<title>The titlepage for the Standard Ebooks edition of The Sign of the Four, by Arthur Conan Doyle</title>
	<g>
		<path d="m 97.327476,68.245613 18.339184,0 0,61.754387 17.59064,0 0,-61.754387 18.33918,0 0,-15.438597 -54.269004,0 0,15.438597 z"/>
		<path d="m 180.52192,99.029239 24.88889,0 0,30.970761 17.59064,0 0,-77.192984 -17.59064,0 0,30.783626 -24.88889,0 0,-30.783626 -17.59064,0 0,77.192984 17.59064,0 0,-30.970761 z"/>
		<path d="m 283.36695,52.807016 -44.16374,0 0,77.192984 44.16374,0 0,-15.4386 -26.5731,0 0,-15.532161 25.4503,0 0,-15.438597 -25.4503,0 0,-15.345029 26.5731,0 0,-15.438597 z"/>
		<path d="m 355.68129,51.403507 c -12.44445,0 -25.16959,9.169591 -25.16959,23.578948 0,8.046784 5.4269,15.251462 14.69005,19.836258 9.1696,4.584795 17.40351,7.111107 17.40351,12.725147 0,7.20468 -7.29824,7.57895 -11.1345,7.57895 -8.60819,0 -18.90058,-8.70176 -18.90058,-8.70176 l -8.79533,14.78363 c 0,0 10.94737,10.19883 29.00585,10.19883 15.06433,0 29.09942,-6.45614 29.09942,-24.88889 0,-10.105264 -9.45029,-17.40351 -18.05848,-21.052632 -8.79532,-3.742691 -16.09357,-6.83041 -16.09357,-11.134504 0,-4.210526 3.18129,-6.923976 9.16959,-6.923976 7.95322,0 15.62573,5.333333 15.62573,5.333333 l 7.11111,-14.035088 c 0,0 -9.91813,-7.298246 -23.95321,-7.298246 z"/>
		<path d="m 412.69298,52.807016 -17.59064,0 0,77.192984 17.59064,0 0,-77.192984 z"/>
		<path d="m 498.77777,86.771929 -35.64912,0 0,13.567251 17.77778,0 c 0,9.45029 -8.32749,14.87719 -16.74854,14.87719 -10.8538,0 -19.64912,-10.66666 -19.64912,-23.766078 0,-13.380117 8.79532,-24.140352 19.64912,-24.140352 6.83041,0 12.72515,2.713451 17.21637,9.918129 L 492.88304,64.59649 c -6.73685,-8.140351 -16.18714,-13.192983 -29.75439,-13.192983 -21.7076,0 -37.61404,17.871346 -37.61404,40.046785 0,22.081868 16.84211,39.953218 37.61404,39.953218 15.1579,0 31.4386,-8.32749 35.64912,-27.88304 l 0,-16.748541 z"/>
		<path d="m 529.05263,82.093566 0.18713,0 L 559.92982,130 l 17.59065,0 0,-77.192984 -17.59065,0 0,47.906434 -0.18713,0 -30.69006,-47.906434 -17.59064,0 0,77.192984 17.59064,0 0,-47.906434 z"/>
		<path d="m 620.88742,91.356724 c 0,22.549706 16.09357,40.046786 38.92397,40.046786 22.17544,0 38.83041,-17.49708 38.83041,-40.046786 0,-22.549708 -17.4035,-39.953217 -38.83041,-39.953217 -21.23976,0 -38.92397,17.403509 -38.92397,39.953217 z m 18.99415,0 c 0,-11.508772 6.36257,-23.017544 19.92982,-23.017544 13.66082,0 19.83626,11.508772 19.83626,23.017544 0,11.508776 -5.80117,23.017546 -19.83626,23.017546 -14.40935,0 -19.92982,-11.50877 -19.92982,-23.017546 z"/>
		<path d="m 756.03506,52.807016 -44.63158,0 0,77.192984 17.59065,0 0,-30.970761 24.98245,0 0,-15.438597 -24.98245,0 0,-15.345029 27.04093,0 0,-15.438597 z"/>
		<path d="m 790.55117,68.245613 18.33918,0 0,61.754387 17.59064,0 0,-61.754387 18.33919,0 0,-15.438597 -54.26901,0 0,15.438597 z"/>
		<path d="m 873.74559,99.029239 24.88889,0 0,30.970761 17.59064,0 0,-77.192984 -17.59064,0 0,30.783626 -24.88889,0 0,-30.783626 -17.59064,0 0,77.192984 17.59064,0 0,-30.970761 z"/>
		<path d="m 976.59066,52.807016 -44.16374,0 0,77.192984 44.16374,0 0,-15.4386 -26.5731,0 0,-15.532161 25.4503,0 0,-15.438597 -25.4503,0 0,-15.345029 26.5731,0 0,-15.438597 z"/>
		<path d="m 1066.9196,52.807016 -44.6316,0 0,77.192984 17.5906,0 0,-30.970761 24.9825,0 0,-15.438597 -24.9825,0 0,-15.345029 27.041,0 0,-15.438597 z"/>
		<path d="m 1076.8231,91.356724 c 0,22.549706 16.0936,40.046786 38.924,40.046786 22.1754,0 38.8304,-17.49708 38.8304,-40.046786 0,-22.549708 -17.4035,-39.953217 -38.8304,-39.953217 -21.2398,0 -38.924,17.403509 -38.924,39.953217 z m 18.9941,0 c 0,-11.508772 6.3626,-23.017544 19.9299,-23.017544 13.6608,0 19.8362,11.508772 19.8362,23.017544 0,11.508776 -5.8011,23.017546 -19.8362,23.017546 -14.4094,0 -19.9299,-11.50877 -19.9299,-23.017546 z"/>
		<path d="m 1226.6609,52.807016 -17.5907,0 0,44.63158 c 0,12.912284 -3.9298,16.654974 -12.538,16.654974 -8.6082,0 -12.538,-3.74269 -12.538,-16.654974 l 0,-44.63158 -17.5907,0 0,49.777774 c 0,19.08772 10.4796,28.81872 30.1287,28.81872 19.6491,0 30.1287,-9.731 30.1287,-28.81872 l 0,-49.777774 z"/>
		<path d="m 1241.9664,52.807016 0,77.192984 17.5907,0 0,-30.502925 L 1283.136,130 l 22.3626,0 -26.5731,-31.906433 c 9.4503,-2.994152 15.8128,-10.760234 15.8128,-22.362574 0,-15.157895 -10.8538,-22.923977 -25.1696,-22.923977 l -27.6023,0 z m 17.5907,34.245615 0,-20.210527 2.0584,0 c 6.6433,0 14.5965,0.467836 14.5965,10.105263 0,9.637428 -7.9532,10.105264 -14.5965,10.105264 l -2.0584,0 z"/>
	</g>
	<g>
		<path d="m 257.52029,232.10526 -12.21053,0 L 221.94134,290 l 14.17544,0 4.2807,-11.57895 22.03509,0 4.2807,11.57895 14.17544,0 -23.36842,-57.89474 z m 0.42105,34.73685 -13.05263,0 6.45614,-16.84211 0.14035,0 6.45614,16.84211 z"/>
		<path d="m 288.0784,232.10526 0,57.89474 13.19299,0 0,-22.87719 L 318.9556,290 l 16.77193,0 -19.92983,-23.92982 c 7.08772,-2.24562 11.85965,-8.07018 11.85965,-16.77193 0,-11.36842 -8.14035,-17.19299 -18.87719,-17.19299 l -20.70176,0 z m 13.19299,25.68421 0,-15.15789 1.54386,0 c 4.98245,0 10.94736,0.35088 10.94736,7.57895 0,7.22807 -5.96491,7.57894 -10.94736,7.57894 l -1.54386,0 z"/>
		<path d="m 336.98958,243.68421 13.75439,0 0,46.31579 13.19298,0 0,-46.31579 13.75439,0 0,-11.57895 -40.70176,0 0,11.57895 z"/>
		<path d="m 400.63542,266.77193 18.66666,0 0,23.22807 13.19298,0 0,-57.89474 -13.19298,0 0,23.08772 -18.66666,0 0,-23.08772 -13.19299,0 0,57.89474 13.19299,0 0,-23.22807 z"/>
		<path d="m 490.38761,232.10526 -13.19298,0 0,33.47369 c 0,9.68421 -2.94737,12.49123 -9.40351,12.49123 -6.45614,0 -9.40351,-2.80702 -9.40351,-12.49123 l 0,-33.47369 -13.19298,0 0,37.33334 c 0,14.31579 7.85965,21.61403 22.59649,21.61403 14.73684,0 22.59649,-7.29824 22.59649,-21.61403 l 0,-37.33334 z"/>
		<path d="m 503.11678,232.10526 0,57.89474 13.19298,0 0,-22.87719 17.68421,22.87719 16.77193,0 -19.92982,-23.92982 c 7.08772,-2.24562 11.85965,-8.07018 11.85965,-16.77193 0,-11.36842 -8.14035,-17.19299 -18.8772,-17.19299 l -20.70175,0 z m 13.19298,25.68421 0,-15.15789 1.54386,0 c 4.98246,0 10.94737,0.35088 10.94737,7.57895 0,7.22807 -5.96491,7.57894 -10.94737,7.57894 l -1.54386,0 z"/>
		<path d="m 611.22095,278.07018 c -13.26316,0 -19.08772,-9.26316 -19.08772,-17.05264 0,-7.71929 5.82456,-16.98245 19.08772,-16.98245 6.73684,0 11.36842,3.57895 11.36842,3.57895 l 5.61403,-11.22807 c 0,0 -6.45614,-5.33334 -19.01754,-5.33334 -16.42105,0 -31.36842,13.47369 -31.36842,30.10527 0,16.5614 15.01754,29.89473 31.36842,29.89473 12.5614,0 19.01754,-5.33333 19.01754,-5.33333 l -5.61403,-11.22807 c 0,0 -4.63158,3.57895 -11.36842,3.57895 z"/>
		<path d="m 635.72314,261.01754 c 0,16.91228 12.07017,30.03509 29.19298,30.03509 16.63158,0 29.12281,-13.12281 29.12281,-30.03509 0,-16.91228 -13.05263,-29.96491 -29.12281,-29.96491 -15.92982,0 -29.19298,13.05263 -29.19298,29.96491 z m 14.24561,0 c 0,-8.63157 4.77193,-17.26315 14.94737,-17.26315 10.24562,0 14.87719,8.63158 14.87719,17.26315 0,8.63158 -4.35087,17.26316 -14.87719,17.26316 -10.80702,0 -14.94737,-8.63158 -14.94737,-17.26316 z"/>
		<path d="m 718.05317,254.07018 0.14035,0 23.01755,35.92982 13.19298,0 0,-57.89474 -13.19298,0 0,35.92983 -0.14036,0 -23.01754,-35.92983 -13.19298,0 0,57.89474 13.19298,0 0,-35.92982 z"/>
		<path d="m 797.24069,232.10526 -12.21053,0 L 761.66174,290 l 14.17544,0 4.2807,-11.57895 22.03509,0 4.2807,11.57895 14.17544,0 -23.36842,-57.89474 z m 0.42105,34.73685 -13.05263,0 6.45614,-16.84211 0.14035,0 6.45614,16.84211 z"/>
		<path d="m 840.99177,254.07018 0.14035,0 23.01754,35.92982 13.19299,0 0,-57.89474 -13.19299,0 0,35.92983 -0.14035,0 -23.01754,-35.92983 -13.19298,0 0,57.89474 13.19298,0 0,-35.92982 z"/>
		<path d="m 914.96438,232.10526 0,57.89474 16.77193,0 c 15.92982,0 29.19298,-12.07018 29.19298,-28.98246 0,-16.8421 -13.33334,-28.91228 -29.19298,-28.91228 l -16.77193,0 z m 13.19298,46.10527 0,-34.31579 2.03509,0 c 9.82456,0 16.49122,7.50877 16.49122,17.19298 -0.0702,9.68421 -6.73684,17.12281 -16.49122,17.12281 l -2.03509,0 z"/>
		<path d="m 969.17709,261.01754 c 0,16.91228 12.07017,30.03509 29.19298,30.03509 16.63153,0 29.12283,-13.12281 29.12283,-30.03509 0,-16.91228 -13.0527,-29.96491 -29.12283,-29.96491 -15.92982,0 -29.19298,13.05263 -29.19298,29.96491 z m 14.24561,0 c 0,-8.63157 4.77193,-17.26315 14.94737,-17.26315 10.24563,0 14.87723,8.63158 14.87723,17.26315 0,8.63158 -4.3509,17.26316 -14.87723,17.26316 -10.80702,0 -14.94737,-8.63158 -14.94737,-17.26316 z"/>
		<path d="m 1031.9984,232.10526 21.3333,31.92983 0,25.96491 13.193,0 0,-25.96491 21.3333,-31.92983 -15.8596,0 -12.0702,18.52632 -12.0702,-18.52632 -15.8596,0 z"/>
		<path d="m 1108.1793,232.10526 -13.193,0 0,57.89474 33.1228,0 0,-11.57895 -19.9298,0 0,-46.31579 z"/>
		<path d="m 1172.7199,232.10526 -33.1228,0 0,57.89474 33.1228,0 0,-11.57895 -19.9299,0 0,-11.64912 19.0878,0 0,-11.57895 -19.0878,0 0,-11.50877 19.9299,0 0,-11.57895 z"/>
	</g>
</svg>

<?xml version="1.0" encoding="utf-8"?>
<svg xmlns="http://www.w3.org/2000/svg" xmlns:svg="http://www.w3.org/2000/svg" version="1.1" viewBox="0 0 1400 340">
	<title>The titlepage for the Standard Ebooks edition of The Sign of the Four, by Arthur Conan Doyle</title>
	<g aria-label="THE SIGN OF THE FOUR">
		<path d="M 97.327476,68.245613 H 115.66666 V 130 H 133.2573 V 68.245613 h 18.33918 V 52.807016 H 97.327476 Z"/>
		<path d="m 180.52192,99.029239 h 24.88889 V 130 h 17.59064 V 52.807016 H 205.41081 V 83.590642 H 180.52192 V 52.807016 H 162.93128 V 130 h 17.59064 z"/>
		<path d="M 283.36695,52.807016 H 239.20321 V 130 h 44.16374 v -15.4386 h -26.5731 V 99.029239 h 25.4503 V 83.590642 h -25.4503 V 68.245613 h 26.5731 z"/>
		<path d="m 355.68129,51.403507 c -12.44445,0 -25.16959,9.169591 -25.16959,23.578948 0,8.046784 5.4269,15.251462 14.69005,19.836258 9.1696,4.584795 17.40351,7.111107 17.40351,12.725147 0,7.20468 -7.29824,7.57895 -11.1345,7.57895 -8.60819,0 -18.90058,-8.70176 -18.90058,-8.70176 l -8.79533,14.78363 c 0,0 10.94737,10.19883 29.00585,10.19883 15.06433,0 29.09942,-6.45614 29.09942,-24.88889 0,-10.105264 -9.45029,-17.40351 -18.05848,-21.052632 -8.79532,-3.742691 -16.09357,-6.83041 -16.09357,-11.134504 0,-4.210526 3.18129,-6.923976 9.16959,-6.923976 7.95322,0 15.62573,5.333333 15.62573,5.333333 l 7.11111,-14.035088 c 0,0 -9.91813,-7.298246 -23.95321,-7.298246 z"/>
		<path d="M 412.69298,52.807016 H 395.10234 V 130 h 17.59064 z"/>
		<path d="m 498.77777,86.771929 h -35.64912 v 13.567251 h 17.77778 c 0,9.45029 -8.32749,14.87719 -16.74854,14.87719 -10.8538,0 -19.64912,-10.66666 -19.64912,-23.766078 0,-13.380117 8.79532,-24.140352 19.64912,-24.140352 6.83041,0 12.72515,2.713451 17.21637,9.918129 L 492.88304,64.59649 c -6.73685,-8.140351 -16.18714,-13.192983 -29.75439,-13.192983 -21.7076,0 -37.61404,17.871346 -37.61404,40.046785 0,22.081868 16.84211,39.953218 37.61404,39.953218 15.1579,0 31.4386,-8.32749 35.64912,-27.88304 z"/>
		<path d="m 529.05263,82.093566 h 0.18713 L 559.92982,130 h 17.59065 V 52.807016 h -17.59065 v 47.906434 h -0.18713 L 529.05263,52.807016 H 511.46199 V 130 h 17.59064 z"/>
		<path d="m 620.88742,91.356724 c 0,22.549706 16.09357,40.046786 38.92397,40.046786 22.17544,0 38.83041,-17.49708 38.83041,-40.046786 0,-22.549708 -17.4035,-39.953217 -38.83041,-39.953217 -21.23976,0 -38.92397,17.403509 -38.92397,39.953217 z m 18.99415,0 c 0,-11.508772 6.36257,-23.017544 19.92982,-23.017544 13.66082,0 19.83626,11.508772 19.83626,23.017544 0,11.508776 -5.80117,23.017546 -19.83626,23.017546 -14.40935,0 -19.92982,-11.50877 -19.92982,-23.017546 z"/>
		<path d="M 756.03506,52.807016 H 711.40348 V 130 h 17.59065 V 99.029239 h 24.98245 V 83.590642 H 728.99413 V 68.245613 h 27.04093 z"/>
		<path d="m 790.55117,68.245613 h 18.33918 V 130 h 17.59064 V 68.245613 h 18.33919 V 52.807016 h -54.26901 z"/>
		<path d="m 873.74559,99.029239 h 24.88889 V 130 h 17.59064 V 52.807016 H 898.63448 V 83.590642 H 873.74559 V 52.807016 H 856.15495 V 130 h 17.59064 z"/>
		<path d="M 976.59066,52.807016 H 932.42692 V 130 h 44.16374 v -15.4386 h -26.5731 V 99.029239 h 25.4503 V 83.590642 h -25.4503 V 68.245613 h 26.5731 z"/>
		<path d="M 1066.9196,52.807016 H 1022.288 V 130 h 17.5906 V 99.029239 h 24.9825 V 83.590642 h -24.9825 V 68.245613 h 27.041 z"/>
		<path d="m 1076.8231,91.356724 c 0,22.549706 16.0936,40.046786 38.924,40.046786 22.1754,0 38.8304,-17.49708 38.8304,-40.046786 0,-22.549708 -17.4035,-39.953217 -38.8304,-39.953217 -21.2398,0 -38.924,17.403509 -38.924,39.953217 z m 18.9941,0 c 0,-11.508772 6.3626,-23.017544 19.9299,-23.017544 13.6608,0 19.8362,11.508772 19.8362,23.017544 0,11.508776 -5.8011,23.017546 -19.8362,23.017546 -14.4094,0 -19.9299,-11.50877 -19.9299,-23.017546 z"/>
		<path d="m 1226.6609,52.807016 h -17.5907 v 44.63158 c 0,12.912284 -3.9298,16.654974 -12.538,16.654974 -8.6082,0 -12.538,-3.74269 -12.538,-16.654974 v -44.63158 h -17.5907 v 49.777774 c 0,19.08772 10.4796,28.81872 30.1287,28.81872 19.6491,0 30.1287,-9.731 30.1287,-28.81872 z"/>
		<path d="M 1241.9664,52.807016 V 130 h 17.5907 V 99.497075 L 1283.136,130 h 22.3626 l -26.5731,-31.906433 c 9.4503,-2.994152 15.8128,-10.760234 15.8128,-22.362574 0,-15.157895 -10.8538,-22.923977 -25.1696,-22.923977 z m 17.5907,34.245615 V 66.842104 h 2.0584 c 6.6433,0 14.5965,0.467836 14.5965,10.105263 0,9.637428 -7.9532,10.105264 -14.5965,10.105264 z"/>
	</g>
	<g aria-label="ARTHUR CONAN DOYLE">
		<path d="M 257.52029,232.10526 H 245.30976 L 221.94134,290 h 14.17544 l 4.2807,-11.57895 h 22.03509 L 266.71327,290 h 14.17544 z m 0.42105,34.73685 H 244.88871 L 251.34485,250 h 0.14035 z"/>
		<path d="M 288.0784,232.10526 V 290 h 13.19299 V 267.12281 L 318.9556,290 h 16.77193 L 315.7977,266.07018 c 7.08772,-2.24562 11.85965,-8.07018 11.85965,-16.77193 0,-11.36842 -8.14035,-17.19299 -18.87719,-17.19299 z m 13.19299,25.68421 v -15.15789 h 1.54386 c 4.98245,0 10.94736,0.35088 10.94736,7.57895 0,7.22807 -5.96491,7.57894 -10.94736,7.57894 z"/>
		<path d="m 336.98958,243.68421 h 13.75439 V 290 h 13.19298 v -46.31579 h 13.75439 v -11.57895 h -40.70176 z"/>
		<path d="m 400.63542,266.77193 h 18.66666 V 290 h 13.19298 v -57.89474 h -13.19298 v 23.08772 H 400.63542 V 232.10526 H 387.44243 V 290 h 13.19299 z"/>
		<path d="m 490.38761,232.10526 h -13.19298 v 33.47369 c 0,9.68421 -2.94737,12.49123 -9.40351,12.49123 -6.45614,0 -9.40351,-2.80702 -9.40351,-12.49123 v -33.47369 h -13.19298 v 37.33334 c 0,14.31579 7.85965,21.61403 22.59649,21.61403 14.73684,0 22.59649,-7.29824 22.59649,-21.61403 z"/>
		<path d="M 503.11678,232.10526 V 290 h 13.19298 V 267.12281 L 533.99397,290 h 16.77193 l -19.92982,-23.92982 c 7.08772,-2.24562 11.85965,-8.07018 11.85965,-16.77193 0,-11.36842 -8.14035,-17.19299 -18.8772,-17.19299 z m 13.19298,25.68421 v -15.15789 h 1.54386 c 4.98246,0 10.94737,0.35088 10.94737,7.57895 0,7.22807 -5.96491,7.57894 -10.94737,7.57894 z"/>
		<path d="m 611.22095,278.07018 c -13.26316,0 -19.08772,-9.26316 -19.08772,-17.05264 0,-7.71929 5.82456,-16.98245 19.08772,-16.98245 6.73684,0 11.36842,3.57895 11.36842,3.57895 l 5.61403,-11.22807 c 0,0 -6.45614,-5.33334 -19.01754,-5.33334 -16.42105,0 -31.36842,13.47369 -31.36842,30.10527 0,16.5614 15.01754,29.89473 31.36842,29.89473 12.5614,0 19.01754,-5.33333 19.01754,-5.33333 l -5.61403,-11.22807 c 0,0 -4.63158,3.57895 -11.36842,3.57895 z"/>
		<path d="m 635.72314,261.01754 c 0,16.91228 12.07017,30.03509 29.19298,30.03509 16.63158,0 29.12281,-13.12281 29.12281,-30.03509 0,-16.91228 -13.05263,-29.96491 -29.12281,-29.96491 -15.92982,0 -29.19298,13.05263 -29.19298,29.96491 z m 14.24561,0 c 0,-8.63157 4.77193,-17.26315 14.94737,-17.26315 10.24562,0 14.87719,8.63158 14.87719,17.26315 0,8.63158 -4.35087,17.26316 -14.87719,17.26316 -10.80702,0 -14.94737,-8.63158 -14.94737,-17.26316 z"/>
		<path d="m 718.05317,254.07018 h 0.14035 L 741.21107,290 h 13.19298 v -57.89474 h -13.19298 v 35.92983 h -0.14036 L 718.05317,232.10526 H 704.86019 V 290 h 13.19298 z"/>
		<path d="M 797.24069,232.10526 H 785.03016 L 761.66174,290 h 14.17544 l 4.2807,-11.57895 h 22.03509 L 806.43367,290 h 14.17544 z m 0.42105,34.73685 H 784.60911 L 791.06525,250 h 0.14035 z"/>
		<path d="m 840.99177,254.07018 h 0.14035 L 864.14966,290 h 13.19299 v -57.89474 h -13.19299 v 35.92983 h -0.14035 L 840.99177,232.10526 H 827.79879 V 290 h 13.19298 z"/>
		<path d="M 914.96438,232.10526 V 290 h 16.77193 c 15.92982,0 29.19298,-12.07018 29.19298,-28.98246 0,-16.8421 -13.33334,-28.91228 -29.19298,-28.91228 z m 13.19298,46.10527 v -34.31579 h 2.03509 c 9.82456,0 16.49122,7.50877 16.49122,17.19298 -0.0702,9.68421 -6.73684,17.12281 -16.49122,17.12281 z"/>
		<path d="m 969.17709,261.01754 c 0,16.91228 12.07017,30.03509 29.19298,30.03509 16.63153,0 29.12283,-13.12281 29.12283,-30.03509 0,-16.91228 -13.0527,-29.96491 -29.12283,-29.96491 -15.92982,0 -29.19298,13.05263 -29.19298,29.96491 z m 14.24561,0 c 0,-8.63157 4.77193,-17.26315 14.94737,-17.26315 10.24563,0 14.87723,8.63158 14.87723,17.26315 0,8.63158 -4.3509,17.26316 -14.87723,17.26316 -10.80702,0 -14.94737,-8.63158 -14.94737,-17.26316 z"/>
		<path d="m 1031.9984,232.10526 21.3333,31.92983 V 290 h 13.193 v -25.96491 l 21.3333,-31.92983 h -15.8596 l -12.0702,18.52632 -12.0702,-18.52632 z"/>
		<path d="m 1108.1793,232.10526 h -13.193 V 290 h 33.1228 v -11.57895 h -19.9298 z"/>
		<path d="m 1172.7199,232.10526 h -33.1228 V 290 h 33.1228 V 278.42105 H 1152.79 v -11.64912 h 19.0878 V 255.19298 H 1152.79 v -11.50877 h 19.9299 z"/>
	</g>
</svg>
